X:1
T:Title
%%score ( 1 2 ) ( 3 4 )
L:1/8
Q:1/4=90
M:3/4
K:G
V:1 treble nm="Midi_20"
V:2 treble 
V:3 bass nm="Midi_20"
V:4 bass 
V:1
"^Bishopthorpe (C.M.)""^Jeremiah Clarke\n(1673-1707)" d>c | B3 A G2 | (F2 E2) c2 | (B2 G2) F2 | %4
 G4 A2 | (B3 c) d2 | (d2 c2) B2 | (B2[Q:1/4=45] A2) ||[M:3/4][Q:1/4=45][Q:1/4=90][Q:1/4=45] d2 | %9
 (d2 c2) B2 | c4 c2 | (c2 B2) A2 | B4 d>c | (B3 A) G2 | (E>A G2) F2 | G4 |] %16
V:2
 G2 | D4 D2 | C4 C2 | D4 D2 | D4 F2 | (G3 A) B2 | (B2 A2) G2 | (G2 F2) ||[M:3/4] A2 | (^G2 A2) E2 | %10
 E4 E2 | (F2 G2) D2 | D4 A2 | G4 D2 | (E2 D2) D2 | D4 |] %16
V:3
 B,>A, | G,4 G,2 | G,4 G,2 | (G,2 B,2) A,2 | G,4 C2 | B,4 G,2 | (G,2 D2) D2 | D4 || %8
[M:3/4]"^1. Immortal love for ever full,\nfor ever flowing free,\nfor ever shared, for ever whole,\na never-ebbing sea!\n\n2. Our outward lips confess the name,\nall other names above;\nlove only knoweth whence it came\nand comprehendeth love.\n\n3. We may not climb the heavenly steeps\nto bring the Lord Christ down;\nin vain we search the lowest deeps,\nfor him no depths can drown;\n\n4. But warm, sweet, tender, even yet\na present help is he;\nand faith has still its Olivet,\nand love its Galilee." D2 | %9
 (B,2 A,2) ^G,2 | A,4 A,2 | (A,2 G,2) F,2 | %12
"^5. The healing of his seamless dress\nis by our beds of pain;\nwe touch him in life's throng and press\nand we are whole again.\n\n6. Through him the first fond prayers are said\nour lips of childhood frame;\nthe last low whispers of the dead\nare burdened with his name.\n\n7. Alone, O Love ineffable,\nthy saving name is give\nto turn aside from thee is hell,\nto walk with thee is heaven." G,4 D2 | %13
 D4 D2 | (C2 B,2) A,2 | B,4 |] %16
V:4
 G,2 | G,4 B,,2 | C,4 E,2 | D,4 C,2 | B,,4 A,,2 | G,,4 G,2 | (E,2 F,2) G,2 | D,4 ||[M:3/4] =F,2 | %9
 E,4 E,2 | A,,4 A,,2 | D,4 D,2 | G,4 F,2 | G,4 B,,2 | (C,2 D,2) D,2 | G,,4 |] %16

